X:1
T:Piange'l Tebro
T:Gasparo Fiorino c. 1530 - c. 1675
T:Piange'l Tebro
T:Villanella a 3 voci Sopra la morte dell' Illustrissima et Eccellentissima Donna Isabella Colonna, Principessa di Sulmona
T:(C) Wim Looyestijn - 2018. May be freely copied for non-commercial use.
C:Gasparo Fiorino
C:c. 1530 - c. 1675
Z:(C) Wim Looyestijn - 2018. May be freely copied for non-commercial use.
%%score [ 1 2 3 ]
L:1/8
Q:1/4=160
M:4/4
K:Bb
V:1 treble-8 nm="Primo tenore" snm="T1"
V:2 treble-8 nm="Secondo tenore" snm="T2"
V:3 bass nm="Basso" snm="B"
V:1
 e8 | e4 f4 | g4 z2 g2 | f2 f2 e2 d2 | e4 d4 | z2 d2 e2 e2 | d2 d2 e3 e | d2 c2 d4 | c4 z2 B2 | %9
w: 1. Pian-|ge'l Te-|bro so-|spi- ra l'a- ria e 1|sas- si|man- dan fuor|vo- ce la- gri-|mo- sa e me-|sta, et|
 c2 d2 e2 e2 | d4 d2 c2- | cBAG A4 | G4 z4 |] %13
w: Ro- ma in ve- ste|lu- ga- bre e|* * * fu- ne-|sta.|
V:2
 c4 B4 | c2 e4 d2 | e4 e4 | d2 d2 c2 =B2 | c4 =B4 | z2 =B2 c2 c2 | =B2 B2 c3 c | =B2 c4 B2 | %8
w: 2. Poi- chè|man- ca- *|ta u-|na è del- le Co-|lon- ne,|cha reg- ge-|va la fe- sta,|gio- ia e ri-|
 c4 z2 G2 | G2 F2 G2 A2 | B4 B2 G2- | G2 G4 ^F2 | G4 z4 |] %13
w: so: e|gi- ta glo- ri-|o- sa al Pa-|* ra- di-|so.|
V:3
 _A,4 G,4 | _A,3 G, F,4 | E,4 z2 E,2 | B,2 B,2 C2 G,2 | C,D,E,F, G,4 | z2 G,2 C,2 C,2 | %6
w: 3. Non pian-|ger * dun-|que, an-|zi gio- i- sci,|Ro- * * * ma,|che gi- ta è|
 G,2 G,2 C,3 C, | G,2 _A,2 G,4 | C,4 E,4 | E,2 D,2 C,2 C,2 | B,,4 B,,2 C,2- | C,2 C,2 D,4 | %12
w: fuor del tuo ma-|ter- no ste-|lo, fer-|ma Co- lon- na a|sos- te- ne-|* re il cie-|
 G,,4 z4 |] %13
w: lo.|

